X:6
P:Kay & Sren Hinrichs
C:Anselm Lingnau
M:C|
L:1/8
K:G
ef|"G"g2 d2 B2 d2|"D"cAGF "G"G3 F|"C"E2 G2 "G/B"D2G2|"Am"C2 AG "D7"FEDC|
"G"B,2 G2 "Am"C2 A2|"G"B2 AG "C"c2 e2|"G"d2 b2 "D7"c'agf|"G"g4 g2||
gf|"C"e2 g2 "G/B"d2 g2|"Am"c2 dc "G"BAGF|"C"EG c2 "G"DG B2|"Am"AGFE "D"D2 EF|
"G"G2 B,2 "Am"C2 A2|"G/B"BAGF "C"E2 e2|"G"d2 b2 "D7"c'agf|"G"g4 g2 :|
